src/64x64/places/folder-gruvbox-mix-aqua-gnome.svg

<?xml version="1.0" encoding="UTF-8"?>
<svg width="64" height="64" version="1" xmlns="http://www.w3.org/2000/svg">
 <rect x="4" y="22" width="56" height="36" rx="2.8" ry="2.8" opacity=".2"/>
 <path d="m4 46.2c0 1.551 1.2488 2.8 2.8 2.8h50.4c1.551 0 2.8-1.249 2.8-2.8v-30.4c0-1.551-1.249-2.8-2.8-2.8h-25.2c-4.2 0-5.6-6-9.8-6h-15.4c-1.5512 0-2.8 1.2488-2.8 2.8" fill="#477a5b"/>
 <rect x="4" y="20" width="56" height="36" rx="2.8" ry="2.8" opacity=".2"/>
 <rect x="8" y="16" width="48" height="22" rx="2.8" ry="2.8" fill="#DCE0BB"/>
 <rect x="4" y="21" width="56" height="36" rx="2.8" ry="2.8" fill="#8bba7f"/>
 <path d="m6.8008 7c-1.5512 0-2.8008 1.2496-2.8008 2.8008v1.0002c0-1.5514 1.2496-2.801 2.8008-2.801h15.398c4.2 0 5.601 6 9.801 6h25.199c1.551 0 2.801 1.25 2.801 2.801v-1c0-1.551-1.25-2.801-2.801-2.801h-25.199c-4.2 0-5.601-6-9.801-6z" fill="#DCE0BB" opacity=".1"/>
 <path d="m39.905 26c-5.078 0-6.03 7.717-3.173 7.717 2.856 0 8.252-7.717 3.173-7.717zm-7.822 1.187c-0.08 0-0.165 8e-3 -0.256 0.017-2.879 0.363-1.866 5.234-0.334 5.325 1.481 0.088 3.105-5.333 0.587-5.342zm-4.989 1.798c-0.176-0.011-0.371 0.022-0.588 0.111-2.313 0.95-0.351 4.871 0.944 4.608 1.175-0.239 1.344-4.609-0.356-4.719zm-3.775 3.206c-0.201-6e-3 -0.419 0.064-0.651 0.236-1.851 1.382 0.624 4.721 1.713 4.203 0.953-0.453 0.345-4.388-1.063-4.439zm10.935 3.187c-4.011-0.069-9.304 1.966-10.207 6.058-0.977 4.424 4.024 10.564 9.24 10.564 2.567 0 5.528-2.346 6.082-5.317 0.423-2.265-4.978-1.357-4.785 0.141 0.233 1.797-1.302 2.685-2.805 1.527-4.787-3.687 7.925-5.527 7.086-10.565-0.261-1.568-2.207-2.366-4.613-2.408z" fill="#39433D"/>
</svg>

<svg xmlns="http://www.w3.org/2000/svg" width="64" height="64" version="1">
 <rect style="opacity:0.2" width="56" height="36" x="4" y="22" rx="2.8" ry="2.8"/>
 <path style="fill:#477a5b" d="M 4,46.2 C 4,47.751 5.2488,49 6.8,49 H 57.2 C 58.751,49 60,47.751 60,46.2 V 15.8 C 60,14.249 58.751,13 57.2,13 H 32 C 27.8,13 26.4,7 22.2,7 H 6.8 C 5.2488,7 4,8.2488 4,9.8"/>
 <rect style="opacity:0.2" width="56" height="36" x="4" y="20" rx="2.8" ry="2.8"/>
 <rect style="fill:#DCE0BB" width="48" height="22" x="8" y="16" rx="2.8" ry="2.8"/>
 <rect style="fill:#8bba7f" width="56" height="36" x="4" y="21" rx="2.8" ry="2.8"/>
 <path style="opacity:0.1;fill:#DCE0BB" d="M 6.8008,7 C 5.2496,7 4,8.2496 4,9.8008 V 10.801 C 4,9.2496 5.2496,8 6.8008,8 H 22.199 C 26.399,8 27.8,14 32,14 H 57.199 C 58.75,14 60,15.25 60,16.801 V 15.801 C 60,14.25 58.75,13 57.199,13 H 32 C 27.8,13 26.399,7 22.199,7 Z"/>
 <path style="fill:#39433D" d="M 39.905,26 C 34.827,26 33.875,33.717 36.732,33.717 39.588,33.717 44.984,26 39.905,26 Z M 32.083,27.187 C 32.003,27.187 31.918,27.195 31.827,27.204 28.948,27.567 29.961,32.438 31.493,32.529 32.974,32.617 34.598,27.196 32.08,27.187 Z M 27.094,28.985 C 26.918,28.974 26.723,29.007 26.506,29.096 24.193,30.046 26.155,33.967 27.45,33.704 28.625,33.465 28.794,29.095 27.094,28.985 Z M 23.319,32.191 C 23.118,32.185 22.9,32.255 22.668,32.427 20.817,33.809 23.292,37.148 24.381,36.63 25.334,36.177 24.726,32.242 23.318,32.191 Z M 34.254,35.378 C 30.243,35.309 24.95,37.344 24.047,41.436 23.07,45.86 28.071,52 33.287,52 35.854,52 38.815,49.654 39.369,46.683 39.792,44.418 34.391,45.326 34.584,46.824 34.817,48.621 33.282,49.509 31.779,48.351 26.992,44.664 39.704,42.824 38.865,37.786 38.604,36.218 36.658,35.42 34.252,35.378 Z"/>
</svg>
